X:1
T:Title
%%score { 1 | 2 }
L:1/8
Q:1/4=112
M:2/2
K:Eb
V:1 treble nm="Grand Piano"
V:2 bass 
V:1
 G4 F2 G2 | B4 A2 G2 | c4 d2 e2 | B2 A2 G4 | [DG]4 [DF]2 [DG]2 | F4 E2 F2 | G4 F2 E2 | [DF]8 | %8
w: B.~M.~Ramsey * *||||||||
 G4 F2 G2 | B4 A2 G2 | c4 d2 [Ge]2 | [_Gd]2 [DGc]2 [D=GB]4 | [CGB]4 [CFA]2 [C=EG]2 | %13
w: |||||
 [CFc]4 [A,CF]2 [A,CG]2 | %14
w: |
 [A,CA]4 [B,DG]2 [A,DF]2[Q:1/4=110][Q:1/4=109][Q:1/4=107][Q:1/4=105][Q:1/4=103][Q:1/4=102][Q:1/4=100][Q:1/4=98][Q:1/4=96][Q:1/4=95][Q:1/4=93][Q:1/4=91][Q:1/4=89][Q:1/4=88][Q:1/4=86] | %15
w: |
 [G,E]8 |] %16
w: |
V:2
 [E,B,E]4 [E,A,E]2 [E,B,E]2 | [G,B,E]4 [F,B,D]2 [E,B,E]2 | [A,E]4 [A,B,E]2 [A,CE]2 | %3
 [G,B,E]2 [F,B,E]2 [E,B,E]4 | [B,,B,]4 [B,,A,]2 [B,,B,]2 | [E,A,D]4 [E,G,]2 [D,B,]2 | %6
 [E,B,E]4 [F,=A,C]2 [C,A,]2 | [B,,B,]8 | [E,B,E]4 [E,A,E]2 [E,B,E]2 | [E,_DE]4 [E,CE]2 [E,B,E]2 | %10
 [A,CE]4 [G,=B,G]2[K:bass] [C,C]2 | [D,=A,]2 D,2 G,4 | =E,4 F,2 G,2 | A,4 A,,2 A,,2 | %14
 F,,4 B,,2 B,,2 | E,8 |] %16

